images/twitter.svg

<svg width="25" height="20" viewBox="0 0 25 20" fill="currentColor" xmlns="http://www.w3.org/2000/svg">
<path d="M24.1002 2.55705C23.2172 2.94905 22.2682 3.21305 21.2722 3.33205C22.2892 2.72305 23.0702 1.75805 23.4372 0.608047C22.4862 1.17205 21.4322 1.58205 20.3102 1.80305C19.4132 0.846047 18.1322 0.248047 16.7162 0.248047C13.5372 0.248047 11.2012 3.21405 11.9192 6.29305C7.82822 6.08805 4.20022 4.12805 1.77122 1.14905C0.48122 3.36205 1.10222 6.25705 3.29422 7.72305C2.48822 7.69705 1.72822 7.47605 1.06522 7.10705C1.01122 9.38805 2.64622 11.522 5.01422 11.997C4.32122 12.185 3.56222 12.229 2.79022 12.081C3.41622 14.037 5.23422 15.46 7.39022 15.5C5.32022 17.123 2.71222 17.848 0.10022 17.54C2.27922 18.937 4.86822 19.752 7.64822 19.752C16.7902 19.752 21.9552 12.031 21.6432 5.10605C22.6052 4.41105 23.4402 3.54405 24.1002 2.55705Z" fill="currentColor"/>
</svg>

<svg width="25" height="20" fill="currentColor" xmlns="http://www.w3.org/2000/svg"><path d="M24.1 2.557a9.83 9.83 0 0 1-2.828.775A4.932 4.932 0 0 0 23.437.608a9.864 9.864 0 0 1-3.127 1.195A4.916 4.916 0 0 0 16.716.248c-3.179 0-5.515 2.966-4.797 6.045A13.978 13.978 0 0 1 1.771 1.149a4.93 4.93 0 0 0 1.523 6.574 4.903 4.903 0 0 1-2.229-.616c-.054 2.281 1.581 4.415 3.95 4.89a4.935 4.935 0 0 1-2.225.084 4.928 4.928 0 0 0 4.6 3.419A9.9 9.9 0 0 1 .1 17.54a13.94 13.94 0 0 0 7.548 2.212c9.142 0 14.307-7.721 13.995-14.646A10.025 10.025 0 0 0 24.1 2.557Z"/></svg>
